static/images/uploads/beer.svg

<svg width='25' height='30' viewBox='0 0 25 30' xmlns='http://www.w3.org/2000/svg'><g id='-' fill='none' fillRule='evenodd'><g id='Parent-Private-Charters' transform='translate(-1187 -2318)' fill='#413F47'><g id='Group-23' transform='translate(1075 2318)'><g id='Group' transform='translate(112)'><path d='M6.66438778,26.3265306 C6.33046443,26.3265306 6.05867347,25.9985472 6.05867347,25.5955856 L6.05867347,17.2619266 C6.05867347,16.8585956 6.33046443,16.5306122 6.66438778,16.5306122 C6.9986172,16.5306122 7.27040816,16.858965 7.27040816,17.2619266 L7.27040816,25.5955856 C7.27040816,25.9985472 6.9986172,26.3265306 6.66438778,26.3265306' id='Fill-1' /><path d='M10.9057653,26.3265306 C10.5715359,26.3265306 10.2997449,25.9985472 10.2997449,25.5955856 L10.2997449,17.2619266 C10.2997449,16.8585956 10.5715359,16.5306122 10.9057653,16.5306122 C11.2396886,16.5306122 11.5114796,16.858965 11.5114796,17.2619266 L11.5114796,25.5955856 C11.5111735,25.9985472 11.2396886,26.3265306 10.9057653,26.3265306' id='Fill-3' /><path d='M15.1465306,26.3265306 C14.8129134,26.3265306 14.5408163,25.9985472 14.5408163,25.5955856 L14.5408163,17.2619266 C14.5408163,16.8585956 14.8129134,16.5306122 15.1465306,16.5306122 C15.4807601,16.5306122 15.752551,16.858965 15.752551,17.2619266 L15.752551,25.5955856 C15.752551,25.9985472 15.4807601,26.3265306 15.1465306,26.3265306' id='Fill-5' /><path d='M13.0853897,12.8700195 C13.0853897,13.7298113 13.6011812,14.4560539 14.2115466,14.4560539 L14.3144866,14.4560539 C14.9252157,14.4560539 15.4406435,13.7298113 15.4406435,12.8700195 L15.4406435,10.0562893 L16.3150883,10.2501748 C16.6319108,10.3197086 16.9476421,10.3553953 17.2520973,10.3553953 C19.2065033,10.3553953 20.7960722,9.08318311 20.7960722,7.51959089 C20.7960722,5.95563077 19.2065033,4.68378647 17.2520973,4.68378647 C16.8006888,4.68378647 16.3540091,4.75442405 15.9251528,4.89459549 L15.2951452,5.09988595 L15.0401594,4.48143924 C14.282477,2.64449432 12.4572008,1.45726794 10.3896699,1.45726794 C8.39125078,1.45726794 6.58889057,2.5885729 5.79847105,4.33906037 L5.56021758,4.86442736 L5.00041287,4.7503771 C4.78252916,4.7051249 4.56173549,4.68268276 4.34421553,4.68268276 C2.74227923,4.68268276 1.43970569,5.88499319 1.43970569,7.36323167 C1.43970569,8.84147014 2.74955415,10.0434127 4.35876536,10.0434127 C4.96258331,10.0434127 5.54239404,9.87491262 6.03563328,9.555204 L6.50159159,9.25315478 L6.90971433,9.63062433 C7.85036084,10.5007174 9.08564142,10.9797285 10.3893062,10.9797285 C10.9760281,10.9797285 11.5609313,10.8778191 12.1272834,10.6773114 L13.085026,10.3384717 L13.085026,12.8700195 L13.0853897,12.8700195 Z M20.0282049,20.168868 L20.9470267,20.168868 L20.9470267,16.579596 L20.0282049,16.579596 L20.0282049,20.168868 Z M21.882217,22.4123469 C22.719196,22.4123469 23.3990368,21.6713881 23.3990368,20.7604577 L23.3990368,15.9883742 C23.3990368,15.0778117 22.719196,14.3368529 21.882217,14.3368529 L20.0278412,14.3368529 L20.0278412,15.1230639 L21.1921913,15.1230639 C21.862211,15.1230639 22.3867324,15.6506383 22.3867324,16.3239027 L22.3867324,20.4252971 C22.3867324,21.0985615 21.862211,21.6254001 21.1921913,21.6254001 L20.0278412,21.6254001 L20.0278412,22.4123469 L21.882217,22.4123469 Z M3.4948692,26.5957838 C3.4948692,27.6693278 4.35840161,28.5427321 5.41981172,28.5427321 L16.6624655,28.5427321 C17.7238756,28.5427321 18.587408,27.6693278 18.587408,26.5957838 L18.587408,11.6529929 C18.1509131,11.7585814 17.7020508,11.8119274 17.2520973,11.8119274 C17.1291513,11.8119274 17.0054777,11.8075126 16.8807129,11.7994187 L16.8807129,12.8703874 C16.8807129,14.5480299 15.7294576,15.9133218 14.3141229,15.9133218 L14.2111828,15.9133218 C12.7958481,15.9133218 11.6449565,14.5480299 11.6449565,12.8703874 L11.6449565,12.3144844 C11.2299226,12.3957912 10.8079776,12.4369964 10.3893062,12.4369964 C8.91649965,12.4369964 7.4818864,11.9443729 6.33936098,11.0485265 C5.7297231,11.3439535 5.04769982,11.5003127 4.35840161,11.5003127 C4.07540742,11.5003127 3.7858658,11.4716162 3.49450545,11.4142232 L3.49450545,26.5957838 L3.4948692,26.5957838 Z M5.41981172,29.9996321 C3.56434463,29.9996321 2.05443601,28.4724624 2.05443601,26.5957838 L2.05443601,10.8671498 C0.784963335,10.1129465 0,8.77819065 0,7.36286377 C0,5.08222656 1.94931349,3.22651852 4.34457927,3.22651852 C4.47407276,3.22651852 4.60538498,3.23166918 4.73706094,3.2427063 C5.86685525,1.23983665 8.02314008,0 10.3900337,0 C12.8118529,0 14.9874163,1.27920238 16.0968408,3.34461572 C16.4762276,3.26625216 16.8643444,3.22651852 17.2528248,3.22651852 C20.000924,3.22651852 22.2365054,5.15212832 22.2365054,7.51922299 C22.2365054,8.95294507 21.4126212,10.2777676 20.0285687,11.0801663 L20.0285687,12.8803208 L21.8829445,12.8803208 C23.513253,12.8803208 24.8405612,14.2750451 24.8405612,15.9887421 L24.8405612,20.7608256 C24.8405612,22.4745226 23.5136167,23.8692469 21.8829445,23.8692469 L20.0285687,23.8692469 L20.0285687,26.5961517 C20.0285687,28.4728303 18.5190238,30 16.6631929,30 L5.41981172,30 L5.41981172,29.9996321 Z' id='Fill-7' /></g></g></g></g></svg>

<svg width="25" height="30" xmlns="http://www.w3.org/2000/svg"><g fill="#413F47"><path d="M6.664 26.327c-.334 0-.605-.328-.605-.731v-8.334c0-.403.271-.731.605-.731.335 0 .606.328.606.73v8.335c0 .403-.271.73-.606.73M10.906 26.327c-.334 0-.606-.328-.606-.731v-8.334c0-.403.272-.731.606-.731.334 0 .605.328.605.73v8.335c0 .403-.271.73-.605.73M15.147 26.327c-.334 0-.606-.328-.606-.731v-8.334c0-.403.272-.731.606-.731.334 0 .606.328.606.73v8.335c0 .403-.272.73-.606.73"/><path d="M13.085 12.87c0 .86.516 1.586 1.127 1.586h.102c.611 0 1.127-.726 1.127-1.586v-2.814l.874.194c.317.07.633.105.937.105 1.955 0 3.544-1.272 3.544-2.835 0-1.564-1.59-2.836-3.544-2.836-.451 0-.898.07-1.327.21l-.63.206-.255-.619c-.758-1.837-2.583-3.024-4.65-3.024-1.999 0-3.801 1.132-4.592 2.882l-.238.525L5 4.75a3.234 3.234 0 0 0-.656-.067c-1.602 0-2.904 1.202-2.904 2.68 0 1.478 1.31 2.68 2.919 2.68.604 0 1.183-.168 1.677-.488l.466-.302.408.378c.94.87 2.176 1.349 3.48 1.349.586 0 1.17-.102 1.737-.303l.958-.339v2.532zm6.943 7.299h.919v-3.59h-.919v3.59zm1.854 2.243c.837 0 1.517-.74 1.517-1.652v-4.772c0-.91-.68-1.651-1.517-1.651h-1.854v.786h1.164c.67 0 1.195.528 1.195 1.2v4.102c0 .674-.525 1.2-1.195 1.2h-1.164v.787h1.854zM3.495 26.596c0 1.073.863 1.947 1.925 1.947h11.242a1.938 1.938 0 0 0 1.925-1.947V11.653a5.683 5.683 0 0 1-1.706.146v1.071c0 1.678-1.152 3.043-2.567 3.043h-.103c-1.415 0-2.566-1.365-2.566-3.043v-.556a6.58 6.58 0 0 1-5.306-1.266 4.558 4.558 0 0 1-1.98.452c-.284 0-.573-.028-.864-.086v15.182zM5.42 30c-1.856 0-3.366-1.528-3.366-3.404V10.867C.785 10.113 0 8.778 0 7.363c0-2.28 1.95-4.136 4.345-4.136.13 0 .26.005.392.016C5.867 1.24 8.023 0 10.39 0c2.422 0 4.597 1.28 5.707 3.345a5.72 5.72 0 0 1 1.156-.118c2.748 0 4.984 1.925 4.984 4.292 0 1.434-.824 2.759-2.208 3.561v1.8h1.854c1.63 0 2.958 1.395 2.958 3.109v4.772c0 1.714-1.327 3.108-2.958 3.108h-1.854v2.727c0 1.877-1.51 3.404-3.366 3.404H5.42z"/></g></svg>
